meituanpaotui.svg

<svg stroke-miterlimit="10" style="fill-rule:nonzero;clip-rule:evenodd;stroke-linecap:round;stroke-linejoin:round" viewBox="0 0 1024 1024" xml:space="preserve" xmlns="http://www.w3.org/2000/svg" xmlns:vectornator="http://vectornator.io"><g vectornator:layerName="Untitled" fill-rule="evenodd"><path d="m316.385 435.152-43.285-23.27-39.604 52.779c-1.991 2.46-.748 6.162 2.328 6.91l52.931 13.005-23.906 37.063c-3.622 5.605 3.71 11.783 8.626 7.273l60.81-52.712c2.508-2.172 1.597-6.268-1.598-7.179l-33.889-9.566c-2.631-.748-3.459-4.067-1.497-5.957l19.084-18.346Z" fill="#e8ae2e"/><path d="m229.978 480.32 16.564 4.073c4.937 1.216 6.343 7.554 2.377 10.741l-55.671 44.719c-5.401 4.197-12.401-2.648-8.334-8.139l35.567-47.969a9.122 9.122 0 0 1 9.497-3.425M384.345 416.736c-1.263.313-2.537.606-3.814.87-40.24 7.544-86.101-15.666-86.101-15.666a43.825 43.825 0 0 0-6.767-3.083c-4.389-1.65-8.93-2.864-13.52-3.793-4.764-.961-9.597-1.548-14.452-1.699-5.512-.173-11.055.223-16.486 1.254a68.371 68.371 0 0 0-17.414 5.825c-6.312 3.125-12.095 7.241-17.242 12.044a86.202 86.202 0 0 0-7.979 8.556c-1.165 1.427.383 3.438 2.053 2.69 1.83-.828 3.619-1.608 5.359-2.346 40.411-15.3 76.517 1.153 76.517 1.153l5.693 3.733c8.686 5.279 19.64 8.533 29.732 10.537 17.99 3.498 39.805 5.157 55.854-5.592 3.643-2.439 8.466-7.596 10.651-11.399.363-.627.676-1.285.839-1.911.585-2.408-.87-1.771-2.923-1.173" fill="#e8ae2e"/><path d="M399.262 425.899h-34.133a2.194 2.194 0 0 1-2.195-2.196v-34.13c0-1.214.981-2.196 2.195-2.196h34.133c1.204 0 2.182.982 2.182 2.196v34.13a2.189 2.189 0 0 1-2.182 2.196M336.591 369.742c-4.228-.073-11.783 1.405-15.231.776l-.598-2.7c-1.111-5.116-6.26-8.282-11.337-6.957l-21.621 5.644c-4.015 1.041-6.472 5.095-5.543 9.142l5.836 25.444a15.932 15.932 0 0 0 7.645 10.276c9.548 5.419 19.731 2.729 27.518-5.007a9.062 9.062 0 0 0 2.478-8.383l-2.234-14.472 13.612-6.191c5.077-2.861 5.077-7.471-.525-7.572" fill="#e8ae2e"/><path d="M493.102 467.716c11.347 6.038 23.907 6.514 27.477 6.514h.282v-8.243c-1.981-.049-9.385-.554-22.146-5.289-4.531-1.688-8.901-5.37-12.966-10.941l-.525-.72h34.86v-7.767h-38.632l.08-.525c.313-1.901.393-3.376.414-5.631h-10.001c-.062 2.343-.293 3.911-.779 5.825l-.081.331h-36.861v7.767h33.747l-.404.689c-3.117 5.268-7.363 8.911-12.621 10.801-12.381 4.44-19.682 5.349-21.463 5.512v8.209c3.956-.119 16.678-1.799 27.417-6.542 6.928-3.055 12.288-7.725 15.948-13.885l.334-.567.417.518c3.599 4.508 9.212 10.587 15.503 13.944M492.151 387.66l-5.139 8.09h-19.588l-5.139-8.098a5.514 5.514 0 0 0-4.559-2.387h-6.473l6.341 10.485h-21.815v7.332h36.631v7.454h-31.968v7.332h31.968v7.453h-38.187v7.283h85.861v-7.283h-38.198v-7.453h31.976v-7.332h-31.976v-7.454h36.642v-7.332h-21.696l6.351-10.485h-6.472a5.503 5.503 0 0 0-4.56 2.395M614.379 465.987v-79.113h-80.815v87.385h72.543c4.56 0 8.272-3.71 8.272-8.272m-8.518-3.591a3.338 3.338 0 0 1-3.337 3.338h-60.595v-70.032h63.932v66.694Z" fill="#462e14"/><path d="M590.348 454.923v-35.225h11.037v-7.311h-11.037v-11.661h-8.435v11.661h-35.272v7.311h33.221l-28.398 24.779v10.477l30.449-26.578v22.633c-.018 1.072-.867 1.903-1.887 1.903h-11.835v7.492l16.689-.01a5.555 5.555 0 0 0 5.468-5.471M673.531 465.906v-20.701h15.958a5.577 5.577 0 0 0 5.572-5.582V411.67h-30.004v62.56h8.474v-.153h39.034v-8.171h-39.034Zm0-45.762h14.058v12.328a4.267 4.267 0 0 1-4.261 4.259h-9.797v-16.587ZM627.081 474.078h33.657v-8.171h-10.022v-25.121h10.022v-6.242h-10.022V422.35h4.631a3.613 3.613 0 0 0 3.61-3.611h.041V387.56h-.041v-.505h-30.178v35.295h13.471v43.557h-4.994v-36.924h-8.477v36.924h-1.698v8.171Zm10.175-60.204v-18.353h13.266v15.057a3.296 3.296 0 0 1-3.296 3.296h-9.97Z" fill="#462e14"/><path d="M690.994 447.512v8.473h15.301a5.012 5.012 0 0 0 5.009-5.015v-57.545h-30.13l.274-.292c3.521-3.793 6.261-6.918 7.092-7.858h-12.096c-3.713 4.308-8.225 9.031-11.389 12.267v11.661c2.203-1.81 4.875-4.27 7.93-7.283l.293-.303v.282h29.56v40.787a4.823 4.823 0 0 1-4.823 4.826h-7.021ZM760.201 387.621h8.354v18.69h-8.354v-18.69ZM771.234 418.526v-8.352H757.52v8.352h5.318v47.301h-4.753v8.344h58.446v-8.344h-45.349v-47.301h.052ZM754.487 472.52v-85.415h-29.206v86.922h8.352V443.92h12.499v21.905H740.6v8.347h12.238a1.65 1.65 0 0 0 1.649-1.652m-8.355-36.952h-12.499v-17.041h12.499v17.041Zm0-25.395h-12.499v-14.716h12.499v14.716Z" fill="#462e14"/><path d="M815.56 461.689v-9.841l-9.294-8.15 5.602-4.914v-9.851l-11.215 9.841-13.025-11.428h19.223a5.016 5.016 0 0 0 5.017-5.017v-35.223h-35.337v71.559h17.699v-8.352h-9.344V434.79l30.674 26.899Zm-30.674-66.231h18.628v7.847h-18.628v-7.847Zm0 16.202h18.63v4.51a2.824 2.824 0 0 1-2.824 2.822h-15.806v-7.332ZM432.958 508.614h41.141v3.64h-41.141v-3.64ZM506.732 500.837l3.399 1.204c-2.651 7.555-5.742 14.664-9.273 21.307a43.32 43.32 0 0 0-3.4-1.859c3.18-5.351 6.274-12.238 9.274-20.652m9.854-9.061h3.681v34.304c0 3.59-1.941 5.379-5.835 5.379-1.551 0-3.604-.038-6.17-.119a100.41 100.41 0 0 0-.699-3.896c2.651.254 4.671.375 6.077.375 1.965 0 2.946-.88 2.946-2.651v-33.392Zm8.603 10.627 3.107-1.483a377.544 377.544 0 0 1 10.262 20.114l-3.759 1.781c-3.371-7.808-6.573-14.615-9.61-20.412M563.409 495.207h14.281v33.734h-3.268v-3.438h-7.736v3.935h-3.277v-34.231Zm11.013 3.062h-7.736v10.478h7.736v-10.478Zm-7.736 24.171h7.736v-10.721h-7.736v10.721Zm12.378-22.017h14.685v-9.154h3.316v9.154h5.877v3.063h-5.877v22.26c0 3.702-1.773 5.551-5.299 5.551-1.598 0-3.943-.039-7.042-.119-.127-1.002-.35-2.154-.655-3.48 2.894.223 5.16.334 6.788.334 1.931 0 2.892-.981 2.892-2.941v-21.605h-14.685v-3.063Zm4.632 7.037c2.206 4.029 3.873 7.242 5.007 9.642-.72.331-1.825.877-3.309 1.657-1.082-2.62-2.627-5.888-4.642-9.81l2.944-1.489ZM669.089 491.859l-.826 1.028c4.631 6.069 10.791 10.641 18.457 13.703a67.03 67.03 0 0 0-2.198 3.309c-7.281-3.588-13.391-8.404-18.333-14.441-4.22 5.463-10.457 10.457-18.7 14.977a40.041 40.041 0 0 0-2.074-3.104c8.526-4.28 14.97-9.434 19.327-15.472h4.347Zm-21.771 35.342h17.09v-7.2H651.01v-3.024h13.398v-6.371h-11.873v-3.024h27.233v3.024h-11.919v6.371h13.449v3.024h-13.449v7.2h17.048v3.068h-37.579v-3.068ZM709.625 520.244c1.548-.375 3.246-.8 5.095-1.284v-14.148H710v-2.983h4.72v-10.053h3.107v10.053h4.46v2.983h-4.46v13.289c1.374-.404 2.829-.829 4.378-1.295 0 1.274.031 2.356.082 3.236-4.46 1.295-8.497 2.548-12.085 3.762l-.577-3.56Zm21.734 8.86c3.143-2.224 5.937-4.935 8.373-8.132-.963-4.155-1.629-10.555-2.004-19.226h-10.721v6.454h8.365c-.062 4.855-.153 9.072-.293 12.632-.142 3.389-1.812 5.085-5.007 5.085a96.57 96.57 0 0 1-3.065-.039 49.193 49.193 0 0 0-.707-3.226c1.215.13 2.307.202 3.278.202 1.597 0 2.436-.94 2.516-2.812.143-2.679.213-5.682.213-9.022h-5.339c-.101 4.947-.497 8.8-1.204 11.541-.849 3.255-2.467 6.431-4.833 9.525a36.037 36.037 0 0 0-2.527-2.363c2.252-2.895 3.749-5.738 4.468-8.526.687-2.672 1.033-7.05 1.033-13.118v-9.313h13.704a643.945 643.945 0 0 1-.174-7.495h3.275a208.62 208.62 0 0 0 .042 7.495h10.226v2.98h-10.123c.241 6.483.697 11.684 1.344 15.606 1.942-3.124 3.612-6.625 5.007-10.518l3.063 1.447c-2.133 5.108-4.531 9.545-7.159 13.31.505 1.859 1.132 3.316 1.859 4.367.749 1.103 1.396 1.66 1.942 1.66.526 0 .86-.386 1.002-1.165.223-1.212.425-3.143.616-5.792a31.3 31.3 0 0 0 3.024 1.121c-.274 2.701-.525 4.642-.748 5.836-.526 2.506-1.608 3.762-3.265 3.762-1.771 0-3.34-.922-4.725-2.773-.769-1.02-1.434-2.333-2.001-3.951-2.234 2.718-4.634 5.015-7.182 6.897-.637-.782-1.395-1.59-2.273-2.449m10.92-35.679 1.903-1.983a81.59 81.59 0 0 1 5.137 4.176l-2.113 2.278a59.911 59.911 0 0 0-4.927-4.471M791.64 528.193c6.092.112 14.05.052 23.881-.16-.479 1.1-.932 2.162-1.367 3.184-9.831.08-17.414.06-22.765-.041-4.994-.14-8.487-1.74-10.478-4.8-.797.634-2.405 2.395-4.833 5.297l-1.779-3.521a228.043 228.043 0 0 1 5.126-4.51v-14.441H774.7v-3.024h7.951v18.122c1.96 2.429 4.955 3.734 8.989 3.894m-13.085-36.377c2.043 2.397 4.169 5.087 6.372 8.069l-2.972 1.984a96.646 96.646 0 0 0-5.97-8.192l2.57-1.861Zm7.12 17.75h12.381c.046-.578.08-2.885.08-6.908H787.21v-2.892h14.193c2.708-3.368 4.65-6.2 5.833-8.497l3.319 2.033c-1.134 1.437-2.956 3.591-5.463 6.464h8.609v2.892h-12.339c0 3.449-.013 5.753-.042 6.908h13.37v2.902h-13.665c-.049.717-.16 1.406-.324 2.063a313.41 313.41 0 0 1 12.705 8.818l-2.193 2.814c-4.249-3.339-8.101-6.223-11.55-8.649-1.874 3.862-5.574 6.93-11.086 9.193a32.21 32.21 0 0 0-2.237-2.61c7.092-2.811 10.892-6.695 11.42-11.629h-12.085v-2.902Zm4.51-16.345 2.488-1.861c1.406 1.517 3.024 3.412 4.847 5.665l-2.866 1.991c-1.647-2.346-3.143-4.277-4.469-5.795" fill="#462e14"/></g></svg>

<?xml version="1.0" encoding="UTF-8" standalone="no"?>
<!DOCTYPE svg PUBLIC "-//W3C//DTD SVG 1.1//EN" "http://www.w3.org/Graphics/SVG/1.1/DTD/svg11.dtd">
<!-- Created with Vectornator (http://vectornator.io/) -->
<svg height="100%" stroke-miterlimit="10" style="fill-rule:nonzero;clip-rule:evenodd;stroke-linecap:round;stroke-linejoin:round;" version="1.1" viewBox="0 0 1024 1024" width="100%" xml:space="preserve" xmlns="http://www.w3.org/2000/svg" xmlns:vectornator="http://vectornator.io" xmlns:xlink="http://www.w3.org/1999/xlink">
<defs/>
<g id="Untitled" vectornator:layerName="Untitled">
<path d="M316.385 435.152L273.1 411.882L233.496 464.661C231.505 467.121 232.748 470.823 235.824 471.571L288.755 484.576L264.849 521.639C261.227 527.244 268.559 533.422 273.475 528.912L334.285 476.2C336.793 474.028 335.882 469.932 332.687 469.021L298.798 459.455C296.167 458.707 295.339 455.388 297.301 453.498L316.385 435.152Z" fill="#e8ae2e" fill-rule="evenodd" opacity="1" stroke="none"/>
<path d="M229.978 480.32L246.542 484.393C251.479 485.609 252.885 491.947 248.919 495.134L193.248 539.853C187.847 544.05 180.847 537.205 184.914 531.714L220.481 483.745C222.667 480.794 226.408 479.45 229.978 480.32" fill="#e8ae2e" fill-rule="evenodd" opacity="1" stroke="none"/>
<path d="M384.345 416.736C383.082 417.049 381.808 417.342 380.531 417.606C340.291 425.15 294.43 401.94 294.43 401.94C292.284 400.726 290 399.695 287.663 398.857C283.274 397.207 278.733 395.993 274.143 395.064C269.379 394.103 264.546 393.516 259.691 393.365C254.179 393.192 248.636 393.588 243.205 394.619C237.178 395.771 231.303 397.723 225.791 400.444C219.479 403.569 213.696 407.685 208.549 412.488C205.696 415.149 203.037 418.02 200.57 421.044C199.405 422.471 200.953 424.482 202.623 423.734C204.453 422.906 206.242 422.126 207.982 421.388C248.393 406.088 284.499 422.541 284.499 422.541L290.192 426.274C298.878 431.553 309.832 434.807 319.924 436.811C337.914 440.309 359.729 441.968 375.778 431.219C379.421 428.78 384.244 423.623 386.429 419.82C386.792 419.193 387.105 418.535 387.268 417.909C387.853 415.501 386.398 416.138 384.345 416.736" fill="#e8ae2e" fill-rule="evenodd" opacity="1" stroke="none"/>
<path d="M399.262 425.899L365.129 425.899C363.915 425.899 362.934 424.917 362.934 423.703L362.934 389.573C362.934 388.359 363.915 387.377 365.129 387.377L399.262 387.377C400.466 387.377 401.444 388.359 401.444 389.573L401.444 423.703C401.444 424.917 400.466 425.899 399.262 425.899" fill="#e8ae2e" fill-rule="evenodd" opacity="1" stroke="none"/>
<path d="M336.591 369.742C332.363 369.669 324.808 371.147 321.36 370.518L320.762 367.818C319.651 362.702 314.502 359.536 309.425 360.861L287.804 366.505C283.789 367.546 281.332 371.6 282.261 375.647L288.097 401.091C289.099 405.441 291.869 409.161 295.742 411.367C305.29 416.786 315.473 414.096 323.26 406.36C325.466 404.175 326.406 401.011 325.738 397.977L323.504 383.505L337.116 377.314C342.193 374.453 342.193 369.843 336.591 369.742" fill="#e8ae2e" fill-rule="evenodd" opacity="1" stroke="none"/>
<path d="M493.102 467.716C504.449 473.754 517.009 474.23 520.579 474.23L520.861 474.23L520.861 465.987C518.88 465.938 511.476 465.433 498.715 460.698C494.184 459.01 489.814 455.328 485.749 449.757L485.224 449.037L520.084 449.037L520.084 441.27L481.452 441.27L481.532 440.745C481.845 438.844 481.925 437.369 481.946 435.114L471.945 435.114C471.883 437.457 471.652 439.025 471.166 440.939L471.085 441.27L434.224 441.27L434.224 449.037L467.971 449.037L467.567 449.726C464.45 454.994 460.204 458.637 454.946 460.527C442.565 464.967 435.264 465.876 433.483 466.039L433.483 474.248C437.439 474.129 450.161 472.449 460.9 467.706C467.828 464.651 473.188 459.981 476.848 453.821L477.182 453.254L477.599 453.772C481.198 458.28 486.811 464.359 493.102 467.716" fill="#462e14" fill-rule="evenodd" opacity="1" stroke="none"/>
<path d="M492.151 387.66L487.012 395.75L467.424 395.75L462.285 387.652C461.255 386.153 459.556 385.265 457.726 385.265L451.253 385.265L457.594 395.75L435.779 395.75L435.779 403.082L472.41 403.082L472.41 410.536L440.442 410.536L440.442 417.868L472.41 417.868L472.41 425.321L434.223 425.321L434.223 432.604L520.084 432.604L520.084 425.321L481.886 425.321L481.886 417.868L513.862 417.868L513.862 410.536L481.886 410.536L481.886 403.082L518.528 403.082L518.528 395.75L496.832 395.75L503.183 385.265L496.711 385.265C494.88 385.265 493.182 386.153 492.151 387.66" fill="#462e14" fill-rule="evenodd" opacity="1" stroke="none"/>
<path d="M614.379 465.987L614.379 386.874L533.564 386.874L533.564 474.259L606.107 474.259C610.667 474.259 614.379 470.549 614.379 465.987M605.861 462.396C605.861 464.24 604.365 465.734 602.524 465.734L541.929 465.734L541.929 395.702L605.861 395.702L605.861 462.396Z" fill="#462e14" fill-rule="evenodd" opacity="1" stroke="none"/>
<path d="M590.348 454.923L590.348 419.698L601.385 419.698L601.385 412.387L590.348 412.387L590.348 400.726L581.913 400.726L581.913 412.387L546.641 412.387L546.641 419.698L579.862 419.698L551.464 444.477L551.464 454.954L581.913 428.376L581.913 451.009C581.895 452.081 581.046 452.912 580.026 452.912L568.191 452.912L568.191 460.404L584.88 460.394C587.883 460.345 590.291 457.937 590.348 454.923" fill="#462e14" fill-rule="evenodd" opacity="1" stroke="none"/>
<path d="M673.531 465.906L673.531 445.205L689.489 445.205C692.565 445.205 695.061 442.707 695.061 439.623L695.061 411.67L665.057 411.67L665.057 474.23L673.531 474.23L673.531 474.077L712.565 474.077L712.565 465.906L673.531 465.906ZM673.531 420.144L687.589 420.144L687.589 432.472C687.589 434.818 685.676 436.731 683.328 436.731L673.531 436.731L673.531 420.144Z" fill="#462e14" fill-rule="evenodd" opacity="1" stroke="none"/>
<path d="M627.081 474.078L660.738 474.078L660.738 465.907L650.716 465.907L650.716 440.786L660.738 440.786L660.738 434.544L650.716 434.544L650.716 422.35L655.347 422.35C657.338 422.35 658.957 420.732 658.957 418.739L658.998 418.739L658.998 387.56L658.957 387.56L658.957 387.055L628.779 387.055L628.779 422.35L642.25 422.35L642.25 465.907L637.256 465.907L637.256 428.983L628.779 428.983L628.779 465.907L627.081 465.907L627.081 474.078ZM637.256 413.874L637.256 395.521L650.522 395.521L650.522 410.578C650.522 412.398 649.046 413.874 647.226 413.874L637.256 413.874Z" fill="#462e14" fill-rule="evenodd" opacity="1" stroke="none"/>
<path d="M690.994 447.512L690.994 455.985L706.295 455.985C709.06 455.985 711.304 453.741 711.304 450.97L711.304 393.425L681.174 393.425L681.448 393.133C684.969 389.34 687.709 386.215 688.54 385.275L676.444 385.275C672.731 389.583 668.219 394.306 665.055 397.542L665.055 409.203C667.258 407.393 669.93 404.933 672.985 401.92L673.278 401.617L673.278 401.899L702.838 401.899L702.838 442.686C702.838 445.358 700.674 447.512 698.015 447.512L690.994 447.512Z" fill="#462e14" fill-rule="evenodd" opacity="1" stroke="none"/>
<path d="M760.201 387.621L768.555 387.621L768.555 406.311L760.201 406.311L760.201 387.621Z" fill="#462e14" fill-rule="evenodd" opacity="1" stroke="none"/>
<path d="M771.234 418.526L771.234 410.174L757.52 410.174L757.52 418.526L762.838 418.526L762.838 465.827L758.085 465.827L758.085 474.171L816.531 474.171L816.531 465.827L771.182 465.827L771.182 418.526L771.234 418.526Z" fill="#462e14" fill-rule="evenodd" opacity="1" stroke="none"/>
<path d="M754.487 472.52L754.487 387.105L725.281 387.105L725.281 474.027L733.633 474.027L733.633 443.92L746.132 443.92L746.132 465.825L740.6 465.825L740.6 474.172L752.838 474.172C753.749 474.172 754.487 473.432 754.487 472.52M746.132 435.568L733.633 435.568L733.633 418.527L746.132 418.527L746.132 435.568ZM746.132 410.173L733.633 410.173L733.633 395.457L746.132 395.457L746.132 410.173Z" fill="#462e14" fill-rule="evenodd" opacity="1" stroke="none"/>
<path d="M815.56 461.689L815.56 451.848L806.266 443.698L811.868 438.784L811.868 428.933L800.653 438.774L787.628 427.346L806.851 427.346C809.624 427.346 811.868 425.099 811.868 422.329L811.868 387.106L776.531 387.106L776.531 458.665L794.23 458.665L794.23 450.313L784.886 450.313L784.886 434.79L815.56 461.689ZM784.886 395.458L803.514 395.458L803.514 403.305L784.886 403.305L784.886 395.458ZM784.886 411.66L803.516 411.66L803.516 416.17C803.516 417.728 802.25 418.992 800.692 418.992L784.886 418.992L784.886 411.66Z" fill="#462e14" fill-rule="evenodd" opacity="1" stroke="none"/>
<path d="M432.958 508.614L474.099 508.614L474.099 512.254L432.958 512.254L432.958 508.614Z" fill="#462e14" fill-rule="evenodd" opacity="1" stroke="none"/>
<path d="M506.732 500.837L510.131 502.041C507.48 509.596 504.389 516.705 500.858 523.348C499.918 522.773 498.784 522.144 497.458 521.489C500.638 516.138 503.732 509.251 506.732 500.837M516.586 491.776L520.267 491.776L520.267 526.08C520.267 529.67 518.326 531.459 514.432 531.459C512.881 531.459 510.828 531.421 508.262 531.34C508.071 530.126 507.838 528.832 507.563 527.444C510.214 527.698 512.234 527.819 513.64 527.819C515.605 527.819 516.586 526.939 516.586 525.168L516.586 491.776ZM525.189 502.403L528.296 500.92C531.796 507.289 535.221 513.994 538.558 521.034L534.799 522.815C531.428 515.007 528.226 508.2 525.189 502.403" fill="#462e14" fill-rule="evenodd" opacity="1" stroke="none"/>
<path d="M563.409 495.207L577.69 495.207L577.69 528.941L574.422 528.941L574.422 525.503L566.686 525.503L566.686 529.438L563.409 529.438L563.409 495.207ZM574.422 498.269L566.686 498.269L566.686 508.747L574.422 508.747L574.422 498.269ZM566.686 522.44L574.422 522.44L574.422 511.719L566.686 511.719L566.686 522.44ZM579.064 500.423L593.749 500.423L593.749 491.269L597.065 491.269L597.065 500.423L602.942 500.423L602.942 503.486L597.065 503.486L597.065 525.746C597.065 529.448 595.292 531.297 591.766 531.297C590.168 531.297 587.823 531.258 584.724 531.178C584.597 530.176 584.374 529.024 584.069 527.698C586.963 527.921 589.229 528.032 590.857 528.032C592.788 528.032 593.749 527.051 593.749 525.091L593.749 503.486L579.064 503.486L579.064 500.423ZM583.696 507.46C585.902 511.489 587.569 514.702 588.703 517.102C587.983 517.433 586.878 517.979 585.394 518.759C584.312 516.139 582.767 512.871 580.752 508.949L583.696 507.46Z" fill="#462e14" fill-rule="evenodd" opacity="1" stroke="none"/>
<path d="M669.089 491.859L668.263 492.887C672.894 498.956 679.054 503.528 686.72 506.59C685.868 507.805 685.13 508.91 684.522 509.899C677.241 506.311 671.131 501.495 666.189 495.458C661.969 500.921 655.732 505.915 647.489 510.435C646.932 509.503 646.246 508.465 645.415 507.331C653.941 503.051 660.385 497.897 664.742 491.859L669.089 491.859ZM647.318 527.201L664.408 527.201L664.408 520.001L651.01 520.001L651.01 516.977L664.408 516.977L664.408 510.606L652.535 510.606L652.535 507.582L679.768 507.582L679.768 510.606L667.849 510.606L667.849 516.977L681.298 516.977L681.298 520.001L667.849 520.001L667.849 527.201L684.897 527.201L684.897 530.269L647.318 530.269L647.318 527.201Z" fill="#462e14" fill-rule="evenodd" opacity="1" stroke="none"/>
<path d="M709.625 520.244C711.173 519.869 712.871 519.444 714.72 518.96L714.72 504.812L710 504.812L710 501.829L714.72 501.829L714.72 491.776L717.827 491.776L717.827 501.829L722.287 501.829L722.287 504.812L717.827 504.812L717.827 518.101C719.201 517.697 720.656 517.272 722.205 516.806C722.205 518.08 722.236 519.162 722.287 520.042C717.827 521.337 713.79 522.59 710.202 523.804L709.625 520.244ZM731.359 529.104C734.502 526.88 737.296 524.169 739.732 520.972C738.769 516.817 738.103 510.417 737.728 501.746L727.007 501.746L727.007 508.2L735.372 508.2C735.31 513.055 735.219 517.272 735.079 520.832C734.937 524.221 733.267 525.917 730.072 525.917C728.99 525.917 727.978 525.909 727.007 525.878C726.847 524.969 726.606 523.884 726.3 522.652C727.515 522.782 728.607 522.854 729.578 522.854C731.175 522.854 732.014 521.914 732.094 520.042C732.237 517.363 732.307 514.36 732.307 511.02L726.968 511.02C726.867 515.967 726.471 519.82 725.764 522.561C724.915 525.816 723.297 528.992 720.931 532.086C720.151 531.279 719.313 530.499 718.404 529.723C720.656 526.828 722.153 523.985 722.872 521.197C723.559 518.525 723.905 514.147 723.905 508.079L723.905 498.766L737.609 498.766C737.536 496.397 737.485 493.902 737.435 491.271L740.71 491.271C740.682 493.92 740.692 496.418 740.752 498.766L750.978 498.766L750.978 501.746L740.855 501.746C741.096 508.229 741.552 513.43 742.199 517.352C744.141 514.228 745.811 510.727 747.206 506.834L750.269 508.281C748.136 513.389 745.738 517.826 743.11 521.591C743.615 523.45 744.242 524.907 744.969 525.958C745.718 527.061 746.365 527.618 746.911 527.618C747.437 527.618 747.771 527.232 747.913 526.453C748.136 525.241 748.338 523.31 748.529 520.661C749.632 521.135 750.642 521.497 751.553 521.782C751.279 524.483 751.028 526.424 750.805 527.618C750.279 530.124 749.197 531.38 747.54 531.38C745.769 531.38 744.2 530.458 742.815 528.607C742.046 527.587 741.381 526.274 740.814 524.656C738.58 527.374 736.18 529.671 733.632 531.553C732.995 530.771 732.237 529.963 731.359 529.104M742.279 493.425L744.182 491.442C745.922 492.737 747.628 494.132 749.319 495.618L747.206 497.896C745.686 496.356 744.05 494.86 742.279 493.425" fill="#462e14" fill-rule="evenodd" opacity="1" stroke="none"/>
<path d="M791.64 528.193C797.732 528.305 805.69 528.245 815.521 528.033C815.042 529.133 814.589 530.195 814.154 531.217C804.323 531.297 796.74 531.277 791.389 531.176C786.395 531.036 782.902 529.436 780.911 526.376C780.114 527.01 778.506 528.771 776.078 531.673L774.299 528.152C776.008 526.606 777.714 525.099 779.425 523.642L779.425 509.201L774.7 509.201L774.7 506.177L782.651 506.177L782.651 524.299C784.611 526.728 787.606 528.033 791.64 528.193M778.555 491.816C780.598 494.213 782.724 496.903 784.927 499.885L781.955 501.869C780.163 499.109 778.172 496.377 775.985 493.677L778.555 491.816ZM785.675 509.566L798.056 509.566C798.102 508.988 798.136 506.681 798.136 502.658L787.21 502.658L787.21 499.766L801.403 499.766C804.111 496.398 806.053 493.566 807.236 491.269L810.555 493.302C809.421 494.739 807.599 496.893 805.092 499.766L813.701 499.766L813.701 502.658L801.362 502.658C801.362 506.107 801.349 508.411 801.32 509.566L814.69 509.566L814.69 512.468L801.025 512.468C800.976 513.185 800.865 513.874 800.701 514.531C805.064 517.402 809.299 520.346 813.406 523.349L811.213 526.163C806.964 522.824 803.112 519.94 799.663 517.514C797.789 521.376 794.089 524.444 788.577 526.707C787.829 525.739 787.081 524.869 786.34 524.097C793.432 521.286 797.232 517.402 797.76 512.468L785.675 512.468L785.675 509.566ZM790.185 493.221L792.673 491.36C794.079 492.877 795.697 494.772 797.52 497.025L794.654 499.016C793.007 496.67 791.511 494.739 790.185 493.221" fill="#462e14" fill-rule="evenodd" opacity="1" stroke="none"/>
</g>
</svg>
